X:1
T:The Maid Behind The Bar
R:reel
M:4/4
O:Trad. (9.4.2014/NS)
L:1/8
K:Dmaj
|:DE|"D"FAAB AFED|FAAB A2de|"Hm"fBBA Bcde|f2gf "A"edBA|
"D"FAAB AFED|FAAB A2de|"Hm"fBBA BcdB|"A"AFEF "D"D2 :|
de|"D"fgag fdde|fdad fdd2|"Em"efga beef|g/f/ebe "A"gee2|
"D"fgaf +slide+b2af|defd e2de|"Hm"fBBA BcdB|"A"AFEF "D"D2 :|
